X: 101
T: First Grandchild (reel)
N: 060099
C: BB
N: minor revision 1/3/07
R: reel
M: 4/4
Q: 380
L: 1/8
K: Ddor
"Dm"A2 cd "Am"ed=cA|"G"Bdge "Am7"cAGE|"F"FAcA "Dm"defd|"F"fafc "Am7" ecAG|
"Dm"D2 FA d^cde|"Dm"fdfg "Am7"agec|"Dm"dfad "C"cegc|"Am7"AcGE "Dm"FD D2 :|
"Dm"d2 ^cd "Am7"AGFE|"Dm"DEFA "C"cGGB|"Dm"Addf adfd|"Am"ecAB "C"c3 c |
"D"d2 ^fd "D"edfd|"C"cdeg "Am"aecA|"D"D2 ^FA "Dm"D2 =FA|"C"GcGE "Dm"D4 :|
%%%%%%%%%%%%%%%%%%%%%%%%%%%%%%%%%%%%%%%%%%%
